src/pos-icons/molecule-co2.svg

<svg height="24" viewBox="0 0 24 24" width="24" xmlns="http://www.w3.org/2000/svg"><path d="m5 7a2 2 0 0 0 -2 2v6a2 2 0 0 0 2 2h3v-2h-3v-6h3v-2zm6 0a2 2 0 0 0 -2 2v6a2 2 0 0 0 2 2h2a2 2 0 0 0 2-2v-6a2 2 0 0 0 -2-2zm0 2h2v6h-2zm5 1.5v1.5h3v1.5h-1.5a1.5 1.5 0 0 0 -1.5 1.5v3h4.5v-1.5h-3v-1.5h1.5a1.5 1.5 0 0 0 1.5-1.5v-1.5a1.5 1.5 0 0 0 -1.5-1.5z"/></svg>

<?xml version="1.0" encoding="UTF-8"?><!DOCTYPE svg PUBLIC "-//W3C//DTD SVG 1.1//EN" "http://www.w3.org/Graphics/SVG/1.1/DTD/svg11.dtd"><svg xmlns="http://www.w3.org/2000/svg" xmlns:xlink="http://www.w3.org/1999/xlink" version="1.1" id="mdi-molecule-co2" width="24" height="24" viewBox="0 0 24 24"><path d="M5,7A2,2 0 0,0 3,9V15A2,2 0 0,0 5,17H8V15H5V9H8V7H5M11,7A2,2 0 0,0 9,9V15A2,2 0 0,0 11,17H13A2,2 0 0,0 15,15V9A2,2 0 0,0 13,7H11M11,9H13V15H11V9M16,10.5V12H19V13.5H17.5A1.5,1.5 0 0,0 16,15V18H20.5V16.5H17.5V15H19A1.5,1.5 0 0,0 20.5,13.5V12A1.5,1.5 0 0,0 19,10.5H16Z" /></svg>
